X:51
T:Dinky's
C:Traditional
M:C|
R:reel
K:Amix
ed | c2B2 ABcd | egfd edBd | gB B2 gBaB | gB B2 gfed |
cdBc ABcd | egfd edBd | gB B2 efed | cdBc A2 :|
|: e^g | aA A2 aAbA | aA A2 agef | gB B2 gBaB | gB B2 gefg |
[1 aA A2 aAbA | aA A2 agef | gage dfed | c2B2 A2 :|
[2 aA A2 gA A2 | fA A2 e2ef | gage dfed | c2B2 A2 |]

